symbols/web/bus_alert/materialsymbolsoutlined/bus_alert_fill1_48px.svg

<svg xmlns="http://www.w3.org/2000/svg" height="48" width="48"><path d="M36.5 21q-3.95 0-6.725-2.775Q27 15.45 27 11.5q0-3.95 2.775-6.725Q32.55 2 36.5 2q3.95 0 6.725 2.775Q46 7.55 46 11.5q0 3.95-2.775 6.725Q40.45 21 36.5 21Zm-.8-7.85h1.7V5.7h-1.7Zm.85 4.45q.5 0 .85-.35t.35-.85q0-.5-.35-.85t-.85-.35q-.5 0-.85.35t-.35.85q0 .5.35.85t.85.35ZM12.3 34.4q1.15 0 1.95-.8t.8-1.95q0-1.15-.8-1.95t-1.95-.8q-1.15 0-1.95.8t-.8 1.95q0 1.15.8 1.95t1.95.8Zm15.4 0q1.15 0 1.95-.8t.8-1.95q0-1.15-.8-1.95t-1.95-.8q-1.15 0-1.95.8t-.8 1.95q0 1.15.8 1.95t1.95.8ZM8.45 44q-.65 0-1.15-.375-.5-.375-.5-.975v-4.2q-1.45-.85-2.125-2.35T4 32.95V13.1q0-3.7 3.675-5.4Q11.35 6 19.4 6q1.45 0 2.9.05t2.9.15q-.55 1.35-.85 2.75-.3 1.4-.3 2.85 0 .75.125 1.5t.325 1.5H7v8.65h26.05q.7.25 1.45.375t1.5.125v9q0 1.65-.675 3.15T33.2 38.45v4.2q0 .6-.5.975T31.55 44h-.95q-.7 0-1.2-.375t-.5-.975V39.9H11.1v2.75q0 .6-.5.975T9.4 44Z"/></svg>

<svg xmlns="http://www.w3.org/2000/svg" height="48" width="48"><path d="M36.5 21Q32.55 21 29.775 18.225Q27 15.45 27 11.5Q27 7.55 29.775 4.775Q32.55 2 36.5 2Q40.45 2 43.225 4.775Q46 7.55 46 11.5Q46 15.45 43.225 18.225Q40.45 21 36.5 21ZM35.7 13.15H37.4V5.7H35.7ZM36.55 17.6Q37.05 17.6 37.4 17.25Q37.75 16.9 37.75 16.4Q37.75 15.9 37.4 15.55Q37.05 15.2 36.55 15.2Q36.05 15.2 35.7 15.55Q35.35 15.9 35.35 16.4Q35.35 16.9 35.7 17.25Q36.05 17.6 36.55 17.6ZM12.3 34.4Q13.45 34.4 14.25 33.6Q15.05 32.8 15.05 31.65Q15.05 30.5 14.25 29.7Q13.45 28.9 12.3 28.9Q11.15 28.9 10.35 29.7Q9.55 30.5 9.55 31.65Q9.55 32.8 10.35 33.6Q11.15 34.4 12.3 34.4ZM27.7 34.4Q28.85 34.4 29.65 33.6Q30.45 32.8 30.45 31.65Q30.45 30.5 29.65 29.7Q28.85 28.9 27.7 28.9Q26.55 28.9 25.75 29.7Q24.95 30.5 24.95 31.65Q24.95 32.8 25.75 33.6Q26.55 34.4 27.7 34.4ZM8.45 44Q7.8 44 7.3 43.625Q6.8 43.25 6.8 42.65V38.45Q5.35 37.6 4.675 36.1Q4 34.6 4 32.95V13.1Q4 9.4 7.675 7.7Q11.35 6 19.4 6Q20.85 6 22.3 6.05Q23.75 6.1 25.2 6.2Q24.65 7.55 24.35 8.95Q24.05 10.35 24.05 11.8Q24.05 12.55 24.175 13.3Q24.3 14.05 24.5 14.8H7V23.45H33.05Q33.75 23.7 34.5 23.825Q35.25 23.95 36 23.95Q36 23.95 36 23.95Q36 23.95 36 23.95V32.95Q36 34.6 35.325 36.1Q34.65 37.6 33.2 38.45V42.65Q33.2 43.25 32.7 43.625Q32.2 44 31.55 44H30.6Q29.9 44 29.4 43.625Q28.9 43.25 28.9 42.65V39.9H11.1V42.65Q11.1 43.25 10.6 43.625Q10.1 44 9.4 44Z"/></svg>
